ZebraLUT.cube
TITLE "LUT"
LUT_3D_SIZE 9
DOMAIN_MIN 0.0 0.0 0.0
DOMAIN_MAX 1.0 1.0 1.0
0 0 0
0 0 0
0 0 0
0 0 0
0 0 0
0 0 0
0 0 0
0 0 0
1 0 0
0 0 0
0 0 0
0 0 0
0 0 0
0 0 0
0 0 0
0 0 0
0 0 0
1 0.125 0
0 0 0
0 0 0
0 0 0
0 0 0
0 0 0
0 0 0
0 0 0
0 0 0
1 0.25 0
0 0 0
0 0 0
0 0 0
0 0 0
0 0 0
0 0 0
0 0 0
0 0 0
1 0.375 0
0 0 0
0 0 0
0 0 0
0 0 0
0 0 0
0 0 0
0 0 0
0 0 0
1 0.5 0
0 0 0
0 0 0
0 0 0
0 0 0
0 0 0
0 0 0
0 0 0
0 0 0
1 0.625 0
0 0 0
0 0 0
0 0 0
0 0 0
0 0 0
0 0 0
0 0 0
0 0 0
1 0.75 0
0 0 0
0 0 0
0 0 0
0 0 0
0 0 0
0 0 0
0 0 0
0 0 0
1 0.875 0
0 1 0
0.125 1 0
0.25 1 0
0.375 1 0
0.5 1 0
0.625 1 0
0.75 1 0
0.875 1 0
1 1 0
0 0 0
0 0 0
0 0 0
0 0 0
0 0 0
0 0 0
0 0 0
0 0 0
1 0 0.125
0 0 0
0 0 0
0 0 0
0 0 0
0 0 0
0 0 0
0 0 0
0 0 0
1 0.125 0.125
0 0 0
0 0 0
0 0 0
0 0 0
0 0 0
0 0 0
0 0 0
0 0 0
1 0.25 0.125
0 0 0
0 0 0
0 0 0
0 0 0
0 0 0
0 0 0
0 0 0
0 0 0
1 0.375 0.125
0 0 0
0 0 0
0 0 0
0 0 0
0 0 0
0 0 0
0 0 0
0 0 0
1 0.5 0.125
0 0 0
0 0 0
0 0 0
0 0 0
0 0 0
0 0 0
0 0 0
0 0 0
1 0.625 0.125
0 0 0
0 0 0
0 0 0
0 0 0
0 0 0
0 0 0
0 0 0
0 0 0
1 0.75 0.125
0 0 0
0 0 0
0 0 0
0 0 0
0 0 0
0 0 0
0 0 0
0 0 0
1 0.875 0.125
0 1 0.125
0.125 1 0.125
0.25 1 0.125
0.375 1 0.125
0.5 1 0.125
0.625 1 0.125
0.75 1 0.125
0.875 1 0.125
1 1 0.125
0 0 0
0 0 0
0 0 0
0 0 0
0 0 0
0 0 0
0 0 0
0 0 0
1 0 0.25
0 0 0
0 0 0
0 0 0
0 0 0
0 0 0
0 0 0
0 0 0
0 0 0
1 0.125 0.25
0 0 0
0 0 0
0 0 0
0 0 0
0 0 0
0 0 0
0 0 0
0 0 0
1 0.25 0.25
0 0 0
0 0 0
0 0 0
0 0 0
0 0 0
0 0 0
0 0 0
0 0 0
1 0.375 0.25
0 0 0
0 0 0
0 0 0
0 0 0
0 0 0
0 0 0
0 0 0
0 0 0
1 0.5 0.25
0 0 0
0 0 0
0 0 0
0 0 0
0 0 0
0 0 0
0 0 0
0 0 0
1 0.625 0.25
0 0 0
0 0 0
0 0 0
0 0 0
0 0 0
0 0 0
0 0 0
0 0 0
1 0.75 0.25
0 0 0
0 0 0
0 0 0
0 0 0
0 0 0
0 0 0
0 0 0
0 0 0
1 0.875 0.25
0 1 0.25
0.125 1 0.25
0.25 1 0.25
0.375 1 0.25
0.5 1 0.25
0.625 1 0.25
0.75 1 0.25
0.875 1 0.25
1 1 0.25
0 0 0
0 0 0
0 0 0
0 0 0
0 0 0
0 0 0
0 0 0
0 0 0
1 0 0.375
0 0 0
0 0 0
0 0 0
0 0 0
0 0 0
0 0 0
0 0 0
0 0 0
1 0.125 0.375
0 0 0
0 0 0
0 0 0
0 0 0
0 0 0
0 0 0
0 0 0
0 0 0
1 0.25 0.375
0 0 0
0 0 0
0 0 0
0 0 0
0 0 0
0 0 0
0 0 0
0 0 0
1 0.375 0.375
0 0 0
0 0 0
0 0 0
0 0 0
0 0 0
0 0 0
0 0 0
0 0 0
1 0.5 0.375
0 0 0
0 0 0
0 0 0
0 0 0
0 0 0
0 0 0
0 0 0
0 0 0
1 0.625 0.375
0 0 0
0 0 0
0 0 0
0 0 0
0 0 0
0 0 0
0 0 0
0 0 0
1 0.75 0.375
0 0 0
0 0 0
0 0 0
0 0 0
0 0 0
0 0 0
0 0 0
0 0 0
1 0.875 0.375
0 1 0.375
0.125 1 0.375
0.25 1 0.375
0.375 1 0.375
0.5 1 0.375
0.625 1 0.375
0.75 1 0.375
0.875 1 0.375
1 1 0.375
0 0 0
0 0 0
0 0 0
0 0 0
0 0 0
0 0 0
0 0 0
0 0 0
1 0 0.5
0 0 0
0 0 0
0 0 0
0 0 0
0 0 0
0 0 0
0 0 0
0 0 0
1 0.125 0.5
0 0 0
0 0 0
0 0 0
0 0 0
0 0 0
0 0 0
0 0 0
0 0 0
1 0.25 0.5
0 0 0
0 0 0
0 0 0
0 0 0
0 0 0
0 0 0
0 0 0
0 0 0
1 0.375 0.5
0 0 0
0 0 0
0 0 0
0 0 0
0 0 0
0 0 0
0 0 0
0 0 0
1 0.5 0.5
0 0 0
0 0 0
0 0 0
0 0 0
0 0 0
0 0 0
0 0 0
0 0 0
1 0.625 0.5
0 0 0
0 0 0
0 0 0
0 0 0
0 0 0
0 0 0
0 0 0
0 0 0
1 0.75 0.5
0 0 0
0 0 0
0 0 0
0 0 0
0 0 0
0 0 0
0 0 0
0 0 0
1 0.875 0.5
0 1 0.5
0.125 1 0.5
0.25 1 0.5
0.375 1 0.5
0.5 1 0.5
0.625 1 0.5
0.75 1 0.5
0.875 1 0.5
1 1 0.5
0 0 0
0 0 0
0 0 0
0 0 0
0 0 0
0 0 0
0 0 0
0 0 0
1 0 0.625
0 0 0
0 0 0
0 0 0
0 0 0
0 0 0
0 0 0
0 0 0
0 0 0
1 0.125 0.625
0 0 0
0 0 0
0 0 0
0 0 0
0 0 0
0 0 0
0 0 0
0 0 0
1 0.25 0.625
0 0 0
0 0 0
0 0 0
0 0 0
0 0 0
0 0 0
0 0 0
0 0 0
1 0.375 0.625
0 0 0
0 0 0
0 0 0
0 0 0
0 0 0
0 0 0
0 0 0
0 0 0
1 0.5 0.625
0 0 0
0 0 0
0 0 0
0 0 0
0 0 0
0 0 0
0 0 0
0 0 0
1 0.625 0.625
0 0 0
0 0 0
0 0 0
0 0 0
0 0 0
0 0 0
0 0 0
0 0 0
1 0.75 0.625
0 0 0
0 0 0
0 0 0
0 0 0
0 0 0
0 0 0
0 0 0
0 0 0
1 0.875 0.625
0 1 0.625
0.125 1 0.625
0.25 1 0.625
0.375 1 0.625
0.5 1 0.625
0.625 1 0.625
0.75 1 0.625
0.875 1 0.625
1 1 0.625
0 0 0
0 0 0
0 0 0
0 0 0
0 0 0
0 0 0
0 0 0
0 0 0
1 0 0.75
0 0 0
0 0 0
0 0 0
0 0 0
0 0 0
0 0 0
0 0 0
0 0 0
1 0.125 0.75
0 0 0
0 0 0
0 0 0
0 0 0
0 0 0
0 0 0
0 0 0
0 0 0
1 0.25 0.75
0 0 0
0 0 0
0 0 0
0 0 0
0 0 0
0 0 0
0 0 0
0 0 0
1 0.375 0.75
0 0 0
0 0 0
0 0 0
0 0 0
0 0 0
0 0 0
0 0 0
0 0 0
1 0.5 0.75
0 0 0
0 0 0
0 0 0
0 0 0
0 0 0
0 0 0
0 0 0
0 0 0
1 0.625 0.75
0 0 0
0 0 0
0 0 0
0 0 0
0 0 0
0 0 0
0 0 0
0 0 0
1 0.75 0.75
0 0 0
0 0 0
0 0 0
0 0 0
0 0 0
0 0 0
0 0 0
0 0 0
1 0.875 0.75
0 1 0.75
0.125 1 0.75
0.25 1 0.75
0.375 1 0.75
0.5 1 0.75
0.625 1 0.75
0.75 1 0.75
0.875 1 0.75
1 1 0.75
0 0 0
0 0 0
0 0 0
0 0 0
0 0 0
0 0 0
0 0 0
0 0 0
1 0 0.875
0 0 0
0 0 0
0 0 0
0 0 0
0 0 0
0 0 0
0 0 0
0 0 0
1 0.125 0.875
0 0 0
0 0 0
0 0 0
0 0 0
0 0 0
0 0 0
0 0 0
0 0 0
1 0.25 0.875
0 0 0
0 0 0
0 0 0
0 0 0
0 0 0
0 0 0
0 0 0
0 0 0
1 0.375 0.875
0 0 0
0 0 0
0 0 0
0 0 0
0 0 0
0 0 0
0 0 0
0 0 0
1 0.5 0.875
0 0 0
0 0 0
0 0 0
0 0 0
0 0 0
0 0 0
0 0 0
0 0 0
1 0.625 0.875
0 0 0
0 0 0
0 0 0
0 0 0
0 0 0
0 0 0
0 0 0
0 0 0
1 0.75 0.875
0 0 0
0 0 0
0 0 0
0 0 0
0 0 0
0 0 0
0 0 0
0 0 0
1 0.875 0.875
0 1 0.875
0.125 1 0.875
0.25 1 0.875
0.375 1 0.875
0.5 1 0.875
0.625 1 0.875
0.75 1 0.875
0.875 1 0.875
1 1 0.875
0 0 1
0.125 0 1
0.25 0 1
0.375 0 1
0.5 0 1
0.625 0 1
0.75 0 1
0.875 0 1
1 0 1
0 0.125 1
0.125 0.125 1
0.25 0.125 1
0.375 0.125 1
0.5 0.125 1
0.625 0.125 1
0.75 0.125 1
0.875 0.125 1
1 0.125 1
0 0.25 1
0.125 0.25 1
0.25 0.25 1
0.375 0.25 1
0.5 0.25 1
0.625 0.25 1
0.75 0.25 1
0.875 0.25 1
1 0.25 1
0 0.375 1
0.125 0.375 1
0.25 0.375 1
0.375 0.375 1
0.5 0.375 1
0.625 0.375 1
0.75 0.375 1
0.875 0.375 1
1 0.375 1
0 0.5 1
0.125 0.5 1
0.25 0.5 1
0.375 0.5 1
0.5 0.5 1
0.625 0.5 1
0.75 0.5 1
0.875 0.5 1
1 0.5 1
0 0.625 1
0.125 0.625 1
0.25 0.625 1
0.375 0.625 1
0.5 0.625 1
0.625 0.625 1
0.75 0.625 1
0.875 0.625 1
1 0.625 1
0 0.75 1
0.125 0.75 1
0.25 0.75 1
0.375 0.75 1
0.5 0.75 1
0.625 0.75 1
0.75 0.75 1
0.875 0.75 1
1 0.75 1
0 0.875 1
0.125 0.875 1
0.25 0.875 1
0.375 0.875 1
0.5 0.875 1
0.625 0.875 1
0.75 0.875 1
0.875 0.875 1
1 0.875 1
0 1 1
0.125 1 1
0.25 1 1
0.375 1 1
0.5 1 1
0.625 1 1
0.75 1 1
0.875 1 1
1 1 1
